assets/efishery/ikan-torpedo-patin-fill.svg

<svg width="24" height="25" viewBox="0 0 24 25" fill="none" xmlns="http://www.w3.org/2000/svg">
<path fill-rule="evenodd" clip-rule="evenodd" d="M11.1258 2.80197C12.3029 3.38598 13.2682 4.34167 13.8245 5.06714C14.622 5.26103 15.3993 5.55373 16.1268 5.9219L16.0399 5.96222C14.455 6.69483 13.2149 7.78841 12.7094 9.2197C12.1982 10.6674 12.4806 12.3384 13.6882 14.1208L13.9532 14.5524C13.9833 14.9574 13.935 15.3555 13.855 15.6953C13.7553 16.1191 13.5927 16.5232 13.3964 16.8569C13.2158 17.164 12.9472 17.5135 12.5854 17.6943C12.2971 17.8385 11.9489 17.7823 11.7206 17.5548C11.717 17.5514 11.7093 17.5441 11.6976 17.5336C11.6743 17.5124 11.6347 17.4774 11.5779 17.4306C11.4642 17.337 11.2813 17.1958 11.0214 17.0226C10.502 16.6762 9.67301 16.2005 8.47143 15.7199C7.34625 15.2698 6.07844 15.1485 5.06247 15.1485C4.70832 15.1485 4.39097 15.1632 4.1291 15.1822C4.65403 16.2589 5.50445 16.7801 6.3746 17.0446C7.26415 17.3151 8.13584 17.307 8.69804 17.3018C8.76896 17.3012 8.83495 17.3006 8.89544 17.3006L8.89969 17.3006C8.94952 17.3004 9.16277 17.2997 9.3674 17.4304C9.50661 17.5193 9.65704 17.6804 9.7082 17.921C9.75432 18.1379 9.69618 18.3131 9.65603 18.403C9.58434 18.5634 9.47248 18.6679 9.43834 18.6998C9.38578 18.7489 9.32901 18.7934 9.2818 18.8286C9.16689 18.9142 8.99139 19.0292 8.81365 19.1457C8.72957 19.2007 8.64438 19.2565 8.56551 19.3093C8.29082 19.4931 8.01683 19.6878 7.79729 19.882C7.5579 20.0938 7.47304 20.2283 7.45717 20.2732C7.45607 20.28 7.44697 20.3369 7.48577 20.4853C7.51992 20.6159 7.56757 20.7387 7.6274 20.8929C7.64742 20.9444 7.66889 20.9998 7.69158 21.0598C7.73121 21.1647 7.77751 21.2935 7.80951 21.4239C7.8393 21.5454 7.87511 21.7377 7.83924 21.9493C7.79704 22.1983 7.65809 22.4491 7.39543 22.61C7.17092 22.7476 6.92901 22.7735 6.74996 22.7735C5.90828 22.7735 5.22822 22.2136 4.73587 21.6342C4.22039 21.0277 3.76754 20.2323 3.39181 19.4289C2.64538 17.8327 2.11727 16.0139 2.02203 15.1567C2.02035 15.1416 2.01913 15.1264 2.01837 15.1113C1.80606 10.865 3.45854 8.19596 5.6894 6.64547C6.67204 5.96252 7.7506 5.50723 8.80225 5.22127C8.70099 5.11093 8.56463 4.99475 8.3971 4.87987C7.95744 4.57837 7.43009 4.3712 7.1204 4.30927C6.82295 4.24977 6.59062 4.01696 6.53175 3.71938C6.47288 3.4218 6.59906 3.11806 6.85146 2.94979C8.3443 1.95457 9.89617 2.19192 11.1258 2.80197ZM5.29989 13.6505C6.37781 13.6685 7.74961 13.8156 9.02851 14.3272C10.3269 14.8465 11.248 15.3708 11.8535 15.7745C11.9677 15.8506 12.0705 15.9224 12.1626 15.989C12.2557 15.8079 12.3395 15.5874 12.3949 15.3517C12.5221 14.8114 12.4637 14.3922 12.2958 14.1462C12.2005 14.1066 12.0658 14.0514 11.9011 13.9855C11.5561 13.8475 11.0817 13.6639 10.5629 13.4808C10.0424 13.2971 9.48592 13.117 8.97472 12.9836C8.65709 12.9008 8.37647 12.8413 8.14331 12.8072C7.98993 12.7856 7.86386 12.7746 7.76451 12.7736L7.74997 12.7735C7.09417 12.7735 6.58801 12.8805 6.08537 13.1318C5.83195 13.2586 5.56944 13.4269 5.28285 13.6502L5.29989 13.6505Z" fill="#1D1D1D"/>
<path fill-rule="evenodd" clip-rule="evenodd" d="M16.4606 6.86944L17.1852 6.53311C17.2087 6.54853 17.2322 6.56401 17.2556 6.57958C18.6495 7.50712 19.8132 8.74979 20.4009 10.1348C20.6184 10.3967 20.8494 10.6368 21.0831 10.8718C21.1343 10.9233 21.1867 10.9755 21.2395 11.0282L21.2415 11.0302C21.4431 11.2313 21.6516 11.4392 21.8285 11.6384C22.2624 12.1268 22.7672 12.8436 22.4615 13.7607C22.2546 14.3814 21.7982 14.7817 21.2561 15.0111C20.7369 15.2308 20.1211 15.3048 19.4922 15.3048C18.2441 15.3048 16.7033 15.0097 15.1791 14.638L14.5285 13.5781L14.522 13.5686C13.4328 11.965 13.2747 10.6221 13.6524 9.55268C14.0367 8.46438 15.0191 7.53568 16.4606 6.86944ZM17.25 11.0235C17.5261 11.0235 17.75 10.7997 17.75 10.5235C17.75 10.2474 17.5261 10.0235 17.25 10.0235C16.9739 10.0235 16.75 10.2474 16.75 10.5235C16.75 10.7997 16.9739 11.0235 17.25 11.0235Z" fill="#1D1D1D"/>
</svg>

<svg viewBox="0 0 24 25" xmlns="http://www.w3.org/2000/svg">
  <path fill-rule="evenodd" clip-rule="evenodd" d="M11.126 2.802c1.177.584 2.142 1.54 2.699 2.265.797.194 1.574.487 2.302.855l-.087.04c-1.585.733-2.825 1.826-3.33 3.258-.512 1.447-.23 3.118.978 4.9l.265.432c.03.405-.018.803-.098 1.143-.1.424-.262.828-.459 1.162-.18.307-.449.657-.81.837a.75.75 0 0 1-.865-.14l-.023-.02a3.264 3.264 0 0 0-.12-.103 6.91 6.91 0 0 0-.557-.408c-.519-.347-1.348-.822-2.55-1.303-1.125-.45-2.393-.572-3.409-.572-.354 0-.671.015-.933.034.525 1.077 1.375 1.598 2.246 1.863.89.27 1.76.262 2.323.257l.197-.001H8.9c.05 0 .263-.001.467.13a.772.772 0 0 1 .289.972c-.072.16-.184.265-.218.297-.052.049-.109.093-.156.129-.115.085-.29.2-.468.317-.084.055-.17.11-.248.163a7.412 7.412 0 0 0-.769.573c-.24.212-.324.346-.34.391a.554.554 0 0 0 .029.212c.034.13.082.254.141.408l.065.167c.04.105.086.234.118.364a1.3 1.3 0 0 1 .03.525.951.951 0 0 1-.445.661 1.223 1.223 0 0 1-.645.163c-.842 0-1.522-.56-2.014-1.139-.516-.606-.968-1.402-1.344-2.205-.747-1.596-1.275-3.415-1.37-4.272a.754.754 0 0 1-.004-.046c-.212-4.246 1.44-6.915 3.671-8.466.983-.682 2.062-1.138 3.113-1.424a2.379 2.379 0 0 0-.405-.341c-.44-.302-.967-.509-1.277-.57a.75.75 0 0 1-.269-1.36c1.493-.995 3.045-.758 4.275-.148zM5.3 13.65c1.078.018 2.45.166 3.729.677 1.298.52 2.219 1.044 2.825 1.447.114.077.216.148.309.215a2.84 2.84 0 0 0 .232-.637c.127-.54.069-.96-.1-1.206a35.328 35.328 0 0 0-1.733-.665 20.42 20.42 0 0 0-1.587-.497 7.95 7.95 0 0 0-.832-.177 3.028 3.028 0 0 0-.378-.033H7.75c-.656 0-1.162.107-1.665.358a4.818 4.818 0 0 0-.802.518H5.3z"/>
  <path fill-rule="evenodd" clip-rule="evenodd" d="m16.46 6.87.725-.337.07.047c1.395.927 2.558 2.17 3.146 3.555.217.262.448.502.682.737l.157.156.002.002c.201.201.41.41.586.608.434.489.94 1.206.634 2.123-.207.62-.664 1.02-1.206 1.25-.52.22-1.135.294-1.764.294-1.248 0-2.789-.295-4.313-.667l-.65-1.06-.007-.01c-1.09-1.603-1.247-2.946-.87-4.015.385-1.089 1.367-2.017 2.809-2.684zm.79 4.154a.5.5 0 1 0 0-1 .5.5 0 0 0 0 1z"/>
</svg>
